svgs/sharp-solid/table-tree.svg

<svg xmlns="http://www.w3.org/2000/svg" viewBox="0 0 512 512"><!--! Font Awesome Pro 6.6.0 by @fontawesome - https://fontawesome.com License - https://fontawesome.com/license (Commercial License) Copyright 2024 Fonticons, Inc. --><path d="M512 32L0 32 0 480l512 0 0-448zM448 160l0 256L64 416l0-256 32 0 0 96 0 16 0 80 0 16 16 0 128 0 16 0 0-32-16 0-112 0 0-64 48 0 16 0 0-32-16 0-48 0 0-80 320 0zM224 224l0 64 192 0 0-64-192 0zm192 96l-128 0 0 64 128 0 0-64z"/></svg>

<svg xmlns="http://www.w3.org/2000/svg" viewBox="0 0 512 512"><!--! Font Awesome Pro 6.4.0 by @fontawesome - https://fontawesome.com License - https://fontawesome.com/license (Commercial License) Copyright 2023 Fonticons, Inc. --><path d="M512 32H0V480H512V32zM448 160V416H64V160H96v96 16 80 16h16H240h16V336H240 128V272h48 16V240H176 128V160H448zM224 224v64H416V224H224zm192 96H288v64H416V320z"/></svg>
